X:881
T:Reel 881
M:4/4
K:Amin
L:1/8
ED|CA,^G,A, E,A,G,A,|B,G, (3G,G,G, B,G,DG,|CA,^G,A, E,A,G,A,|DB,GB, CDED|CA,^G,A, E,A,G,A,|B,G, (3G,G,G, B,G,DG,|CB,CA, E,A, (3A,A,A, |DB,G,B, A,2|A,^G,|E,A,|A,B,CD EFED|ECDB, CA,B,G,|A,G,A,B, CDEF|GEA^G A2A2|ABcA GAGE|DB, (3B,CD EFGB|A^FGE DB,CD|EAA^G A2|
